X: 28742
T: My Great Friend John Morris Rankin
R: reel
M: 4/4
K: Dmajor
B|:ABAFA2AB|defed2dc|BcBAB2Bb|afedB2ed|
ABAFA2AB|defed2dc|BcBA Bbag|1 edefd2dB:|2 edefd2fg||
|:abafa2ab|abafd2df|edefe2ef|g2gf eddB|
[1abafa2ab|abafd2df|efed egfe|dBAFD2fg:|
[2ABAFA2AB|defed2dc|BcBA Bbag|edefd2d||

